school/img/country/CD.svg

<svg width="13" height="12" viewBox="0 0 13 12" fill="none" xmlns="http://www.w3.org/2000/svg">
<rect width="13" height="12" rx="2" fill="white"/>
<mask id="mask0" mask-type="alpha" maskUnits="userSpaceOnUse" x="0" y="0" width="13" height="12">
<rect width="13" height="12" rx="2" fill="white"/>
</mask>
<g mask="url(#mask0)">
<rect width="13" height="12" rx="2" fill="#158AFF"/>
<path fill-rule="evenodd" clip-rule="evenodd" d="M15.0239 3.12274L-0.971764 13.6553L-2.65801 9.37849L13.3377 -1.15409L15.0239 3.12274Z" fill="#FDD216"/>
<rect width="19.152" height="3.06483" transform="matrix(-0.835199 0.549948 -0.366795 -0.930302 14.9136 2.26428)" fill="#CE1120"/>
<path fill-rule="evenodd" clip-rule="evenodd" d="M2.16664 3.57999L1.25697 4.41802L1.59261 3.04102L0.694764 2.18195L1.81187 2.16895L2.16664 0.799988L2.52141 2.16895L3.63851 2.18195L2.74067 3.04102L3.0763 4.41802L2.16664 3.57999Z" fill="#FDD216"/>
</g>
</svg>

<svg width="13" height="12" fill="none" xmlns="http://www.w3.org/2000/svg"><rect width="13" height="12" rx="2" fill="#fff"/><mask id="a" maskUnits="userSpaceOnUse" x="0" y="0" width="13" height="12"><rect width="13" height="12" rx="2" fill="#fff"/></mask><g mask="url(#a)"><rect width="13" height="12" rx="2" fill="#158AFF"/><path fill-rule="evenodd" clip-rule="evenodd" d="M15.024 3.123L-.972 13.655l-1.686-4.277L13.338-1.154l1.686 4.277z" fill="#FDD216"/><path fill="#CE1120" d="M14.914 2.264L-1.082 12.797l-1.124-2.851L13.789-.587z"/><path fill-rule="evenodd" clip-rule="evenodd" d="M2.167 3.58l-.91.838.336-1.377-.898-.859 1.117-.013L2.167.8l.354 1.369 1.118.013-.898.859.335 1.377-.91-.838z" fill="#FDD216"/></g></svg>
